icons/midnadark/apps/22/homerun.svg

<svg xmlns="http://www.w3.org/2000/svg" viewBox="0 0 22 22" xmlns:xlink="http://www.w3.org/1999/xlink"><defs><path id="0" d="m117.18 31.592c-5.595-9.586-13.185-17.18-22.771-22.771-9.588-5.595-20.06-8.392-31.408-8.392-11.352 0-21.822 2.797-31.408 8.392-9.587 5.594-17.18 13.184-22.772 22.771-5.596 9.587-8.393 20.06-8.393 31.408 0 11.352 2.798 21.82 8.392 31.408 5.595 9.585 13.185 17.18 22.772 22.771 9.587 5.595 20.06 8.392 31.408 8.392 11.352 0 21.822-2.797 31.408-8.392 9.586-5.594 17.18-13.185 22.771-22.771 5.594-9.587 8.391-20.06 8.391-31.408 0-11.352-2.797-21.822-8.39-31.408" fill="#fff"/><clipPath><path d="m0 706.47h1490.93v-706.47h-1490.93v706.47"/></clipPath><clipPath><path d="m22.2 686.12h1447.73v-667.19h-1447.73v667.19"/></clipPath><clipPath><path fill="#f2f2f2" d="m7 1023.36h1v1h-1z"/></clipPath><clipPath><path fill="#00f" fill-opacity=".514" d="m-7 1024.36h34v34h-34z"/></clipPath><clipPath><path fill="#aade87" fill-opacity=".472" d="m-6 1028.36h32v32h-32z"/></clipPath></defs><g transform="matrix(1.0005 0 0 1.0005-436.75-528.99)" fill="#fff"><use transform="matrix(.05594 0 0 .05594 439.44 531.71)" xlink:href="#0"/><use transform="matrix(.05594 0 0 .05594 439.51 540.7)" xlink:href="#0"/><use transform="matrix(.05594 0 0 .05594 448.59 531.71)" xlink:href="#0"/><use transform="matrix(.05594 0 0 .05594 448.49 540.65)" xlink:href="#0"/></g></svg>

<?xml version="1.0" encoding="UTF-8" standalone="no"?>
<!-- Created with Inkscape (http://www.inkscape.org/) -->

<svg
   xmlns:sketch="http://www.bohemiancoding.com/sketch/ns"
   xmlns:dc="http://purl.org/dc/elements/1.1/"
   xmlns:cc="http://creativecommons.org/ns#"
   xmlns:rdf="http://www.w3.org/1999/02/22-rdf-syntax-ns#"
   xmlns:svg="http://www.w3.org/2000/svg"
   xmlns="http://www.w3.org/2000/svg"
   xmlns:sodipodi="http://sodipodi.sourceforge.net/DTD/sodipodi-0.dtd"
   xmlns:inkscape="http://www.inkscape.org/namespaces/inkscape"
   width="22"
   height="22"
   id="svg2"
   version="1.1"
   inkscape:version="0.91 r13725"
   viewBox="0 0 22 22"
   sodipodi:docname="homerun.svg">
  <defs
     id="defs4">
    <linearGradient
       id="linearGradient3257">
      <stop
         id="stop3259"
         style="stop-color:#a50000;stop-opacity:1"
         offset="0" />
      <stop
         id="stop3261"
         style="stop-color:#e73800;stop-opacity:1"
         offset="1" />
    </linearGradient>
    <clipPath
       id="clipPath4210"
       clipPathUnits="userSpaceOnUse">
      <rect
         style="opacity:1;fill:#0000ff;fill-opacity:0.51376145;stroke:none;stroke-opacity:1"
         id="rect4212"
         width="34"
         height="34"
         x="-7"
         y="1024.3622" />
    </clipPath>
    <clipPath
       id="clipPath4160"
       clipPathUnits="userSpaceOnUse">
      <rect
         y="1028.3619"
         x="-6"
         height="32.000015"
         width="32"
         id="rect4162"
         style="opacity:1;fill:#aade87;fill-opacity:0.47247709;stroke:none;stroke-opacity:1" />
    </clipPath>
    <clipPath
       clipPathUnits="userSpaceOnUse"
       id="clipPath4160-4">
      <rect
         style="opacity:1;fill:#f2f2f2;fill-opacity:1;stroke:none;stroke-opacity:1"
         id="rect4162-5"
         width="1"
         height="1"
         x="7"
         y="1023.3622" />
    </clipPath>
    <clipPath
       id="clipPath16"
       clipPathUnits="userSpaceOnUse">
      <path
         inkscape:connector-curvature="0"
         id="path18"
         d="m 0,706.465 1490.926,0 L 1490.926,0 0,0 0,706.465 Z" />
    </clipPath>
    <clipPath
       id="clipPath24"
       clipPathUnits="userSpaceOnUse">
      <path
         inkscape:connector-curvature="0"
         id="path26"
         d="m 22.1953,686.117 1447.7347,0 0,-667.1902 -1447.7347,0 0,667.1902 z" />
    </clipPath>
  </defs>
  <sodipodi:namedview
     id="base"
     pagecolor="#ffffff"
     bordercolor="#666666"
     borderopacity="1.0"
     inkscape:pageopacity="0.0"
     inkscape:pageshadow="2"
     inkscape:zoom="16"
     inkscape:cx="-12.40625"
     inkscape:cy="13.328437"
     inkscape:document-units="px"
     inkscape:current-layer="layer1"
     showgrid="true"
     units="px"
     inkscape:showpageshadow="false"
     inkscape:window-width="1366"
     inkscape:window-height="633"
     inkscape:window-x="0"
     inkscape:window-y="33"
     inkscape:window-maximized="1"
     showguides="true">
    <inkscape:grid
       type="xygrid"
       id="grid4101" />
    <sodipodi:guide
       position="2,20.000017"
       orientation="18,0"
       id="guide4107" />
    <sodipodi:guide
       position="2,2.0000174"
       orientation="0,18"
       id="guide4109" />
    <sodipodi:guide
       position="20,2.0000174"
       orientation="-18,0"
       id="guide4111" />
    <sodipodi:guide
       position="20,20.000017"
       orientation="0,-18"
       id="guide4113" />
    <sodipodi:guide
       position="3,19.000017"
       orientation="16,0"
       id="guide4115" />
    <sodipodi:guide
       position="3,3.0000174"
       orientation="0,16"
       id="guide4117" />
    <sodipodi:guide
       position="19,3.0000174"
       orientation="-16,0"
       id="guide4119" />
    <sodipodi:guide
       position="19,19.000017"
       orientation="0,-16"
       id="guide4121" />
    <sodipodi:guide
       position="10,6.0000174"
       orientation="-7,0"
       id="guide4162" />
    <sodipodi:guide
       position="11,12.000017"
       orientation="5,0"
       id="guide4280" />
    <sodipodi:guide
       position="11,7.0000174"
       orientation="0,5"
       id="guide4282" />
    <sodipodi:guide
       position="16,7.0000174"
       orientation="-5,0"
       id="guide4284" />
    <sodipodi:guide
       position="-38,12"
       orientation="0,-5"
       id="guide4286" />
    <sodipodi:guide
       position="5,13.000017"
       orientation="6,0"
       id="guide4294" />
    <sodipodi:guide
       position="5,7.0000174"
       orientation="0,6"
       id="guide4296" />
    <sodipodi:guide
       position="11,7.0000174"
       orientation="-6,0"
       id="guide4298" />
  </sodipodi:namedview>
  <metadata
     id="metadata7">
    <rdf:RDF>
      <cc:Work
         rdf:about="">
        <dc:format>image/svg+xml</dc:format>
        <dc:type
           rdf:resource="http://purl.org/dc/dcmitype/StillImage" />
        <dc:title />
      </cc:Work>
    </rdf:RDF>
  </metadata>
  <g
     inkscape:label="Capa 1"
     inkscape:groupmode="layer"
     id="layer1"
     transform="translate(0,-1030.3622)">
    <g
       transform="translate(-326,496)"
       id="layer1-2"
       inkscape:label="Capa 1"
       style="fill:#ffffff;fill-opacity:1">
      <g
         inkscape:label="Capa 1"
         id="layer1-6"
         transform="matrix(0.67322778,0,0,0.67322778,67.324185,187.34101)"
         style="fill:#ffffff;fill-opacity:1">
        <g
           transform="matrix(1.4861058,0,0,1.4861058,-242.47995,-265.98878)"
           id="layer1-0"
           inkscape:label="Capa 1"
           style="fill:#ffffff;fill-opacity:1">
          <g
             style="fill:#ffffff;fill-opacity:1"
             transform="translate(-14.826669,-2.8964678)"
             inkscape:label="Capa 1"
             id="layer1-9">
            <g
               id="circle33"
               sketch:type="MSLayerGroup"
               transform="matrix(0.05593646,0,0,0.05593646,439.43695,531.71068)"
               style="fill:#ffffff;fill-opacity:1">
              <path
                 d="M 117.18,31.592 C 111.585,22.006 103.995,14.416 94.409,8.821 84.821,3.226 74.354,0.429 63.001,0.429 51.649,0.429 41.179,3.226 31.593,8.821 22.006,14.415 14.416,22.005 8.821,31.592 3.225,41.179 0.428,51.649 0.428,63 c 0,11.352 2.798,21.82 8.392,31.408 5.595,9.585 13.185,17.176 22.772,22.771 9.587,5.595 20.056,8.392 31.408,8.392 11.352,0 21.822,-2.797 31.408,-8.392 9.586,-5.594 17.176,-13.185 22.771,-22.771 5.594,-9.587 8.391,-20.057 8.391,-31.408 0,-11.352 -2.797,-21.822 -8.39,-31.408 z"
                 id="path285"
                 sketch:type="MSShapeGroup"
                 inkscape:connector-curvature="0"
                 style="fill:#ffffff;fill-opacity:1"
                 sodipodi:nodetypes="ccsccscssccscc" />
            </g>
            <g
               id="circular56"
               sketch:type="MSLayerGroup"
               transform="matrix(0.05593646,0,0,0.05593646,439.51194,540.69898)"
               style="fill:#ffffff;fill-opacity:1">
              <path
                 d="M 117.18,31.592 C 111.585,22.006 103.995,14.416 94.409,8.821 84.821,3.226 74.354,0.429 63.001,0.429 51.649,0.429 41.179,3.226 31.593,8.821 22.006,14.415 14.416,22.005 8.821,31.592 3.225,41.179 0.428,51.649 0.428,63 c 0,11.352 2.798,21.82 8.392,31.408 5.595,9.585 13.185,17.176 22.772,22.771 9.587,5.595 20.056,8.392 31.408,8.392 11.352,0 21.822,-2.797 31.408,-8.392 9.586,-5.594 17.176,-13.185 22.771,-22.771 5.594,-9.587 8.391,-20.057 8.391,-31.408 0,-11.352 -2.797,-21.822 -8.39,-31.408 l 0,0 z"
                 id="path291"
                 sketch:type="MSShapeGroup"
                 inkscape:connector-curvature="0"
                 style="fill:#ffffff;fill-opacity:1" />
            </g>
            <g
               id="circular56-3"
               sketch:type="MSLayerGroup"
               transform="matrix(0.05593646,0,0,0.05593646,448.58654,531.70678)"
               style="fill:#ffffff;fill-opacity:1">
              <path
                 d="M 117.18,31.592 C 111.585,22.006 103.995,14.416 94.409,8.821 84.821,3.226 74.354,0.429 63.001,0.429 51.649,0.429 41.179,3.226 31.593,8.821 22.006,14.415 14.416,22.005 8.821,31.592 3.225,41.179 0.428,51.649 0.428,63 c 0,11.352 2.798,21.82 8.392,31.408 5.595,9.585 13.185,17.176 22.772,22.771 9.587,5.595 20.056,8.392 31.408,8.392 11.352,0 21.822,-2.797 31.408,-8.392 9.586,-5.594 17.176,-13.185 22.771,-22.771 5.594,-9.587 8.391,-20.057 8.391,-31.408 0,-11.352 -2.797,-21.822 -8.39,-31.408 l 0,0 z"
                 id="path291-5"
                 sketch:type="MSShapeGroup"
                 inkscape:connector-curvature="0"
                 style="fill:#ffffff;fill-opacity:1" />
            </g>
            <g
               id="circle33-5"
               sketch:type="MSLayerGroup"
               transform="matrix(0.05593646,0,0,0.05593646,448.4929,540.65041)"
               style="fill:#ffffff;fill-opacity:1">
              <path
                 d="M 117.18,31.592 C 111.585,22.006 103.995,14.416 94.409,8.821 84.821,3.226 74.354,0.429 63.001,0.429 51.649,0.429 41.179,3.226 31.593,8.821 22.006,14.415 14.416,22.005 8.821,31.592 3.225,41.179 0.428,51.649 0.428,63 c 0,11.352 2.798,21.82 8.392,31.408 5.595,9.585 13.185,17.176 22.772,22.771 9.587,5.595 20.056,8.392 31.408,8.392 11.352,0 21.822,-2.797 31.408,-8.392 9.586,-5.594 17.176,-13.185 22.771,-22.771 5.594,-9.587 8.391,-20.057 8.391,-31.408 0,-11.352 -2.797,-21.822 -8.39,-31.408 z"
                 id="path285-1"
                 sketch:type="MSShapeGroup"
                 inkscape:connector-curvature="0"
                 style="fill:#ffffff;fill-opacity:1"
                 sodipodi:nodetypes="ccsccscssccscc" />
            </g>
          </g>
        </g>
      </g>
    </g>
  </g>
</svg>
